com-5/img/footer-logo.svg

<svg xmlns="http://www.w3.org/2000/svg" viewBox="0 0 116.01466 59.566665" height="59.567" width="116.015"><defs><clipPath id="a"><path d="M0 66.342h87.011V0H0z"/></clipPath></defs><g clip-path="url(#a)" transform="matrix(1.33333 0 0 -1.33333 0 88.456)"><path d="M0 21.667h17.402v44.675H0z" fill="#231f20"/><path d="M34.804 21.667h10.442V44.01H34.804z" fill="#28aae1"/><path d="M20.882 21.667h10.442v44.675H20.882z" fill="#ed1c24"/><path d="M55.687 21.667h17.402v44.675H55.687z" fill="#231f20"/><path d="M76.57 21.673h10.441v36.654H76.57z" fill="#28aae1"/></g></svg>

<?xml version="1.0" encoding="UTF-8" standalone="no"?>
<svg
   xmlns:dc="http://purl.org/dc/elements/1.1/"
   xmlns:cc="http://creativecommons.org/ns#"
   xmlns:rdf="http://www.w3.org/1999/02/22-rdf-syntax-ns#"
   xmlns:svg="http://www.w3.org/2000/svg"
   xmlns="http://www.w3.org/2000/svg"
   viewBox="0 0 116.01466 59.566665"
   height="59.566666"
   width="116.01466"
   xml:space="preserve"
   id="svg2"
   version="1.1"><metadata
     id="metadata8"><rdf:RDF><cc:Work
         rdf:about=""><dc:format>image/svg+xml</dc:format><dc:type
           rdf:resource="http://purl.org/dc/dcmitype/StillImage" /><dc:title></dc:title></cc:Work></rdf:RDF></metadata><defs
     id="defs6"><clipPath
       id="clipPath18"
       clipPathUnits="userSpaceOnUse"><path
         id="path16"
         d="M 0,66.342 H 87.011 V 0 H 0 Z" /></clipPath></defs><g
     transform="matrix(1.3333333,0,0,-1.3333333,0,88.455998)"
     id="g10"><g
       id="g12"><g
         clip-path="url(#clipPath18)"
         id="g14"><g
           transform="translate(2e-4,0.3517)"
           id="g20" /><g
           transform="translate(17.0158,11.1632)"
           id="g24" /><g
           transform="translate(27.0471,3.8654)"
           id="g28" /><g
           transform="translate(31.613,0.3517)"
           id="g32" /><g
           transform="translate(42.2482,3.7482)"
           id="g36" /><g
           transform="translate(51.9079,0.3517)"
           id="g40" /><g
           transform="translate(62.5632,11.5148)"
           id="g44" /><g
           transform="translate(69.862,0.3517)"
           id="g48" /><g
           transform="translate(86.8981,4.6056)"
           id="g52" /><path
           id="path56"
           style="fill:#231f20;fill-opacity:1;fill-rule:nonzero;stroke:none"
           d="M 0,21.667 H 17.402 V 66.342 H 0 Z" /><path
           id="path58"
           style="fill:#28aae1;fill-opacity:1;fill-rule:nonzero;stroke:none"
           d="M 34.804,21.667 H 45.246 V 44.01 H 34.804 Z" /><path
           id="path60"
           style="fill:#ed1c24;fill-opacity:1;fill-rule:nonzero;stroke:none"
           d="M 20.882,21.667 H 31.324 V 66.342 H 20.882 Z" /><path
           id="path62"
           style="fill:#231f20;fill-opacity:1;fill-rule:nonzero;stroke:none"
           d="M 55.687,21.667 H 73.089 V 66.342 H 55.687 Z" /><path
           id="path64"
           style="fill:#28aae1;fill-opacity:1;fill-rule:nonzero;stroke:none"
           d="M 76.57,21.673 H 87.011 V 58.327 H 76.57 Z" /></g></g></g></svg>
